X:1
T:Carew, SM
T:Carew, SM
T:Daniel Steibelt (1755-1823)
T:Public Domain Courtesy of the Cyber Hymnal™
C:Daniel Steibelt (1755-1823)
Z:Public Domain
Z:Courtesy of the Cyber Hymnal™
%%score ( 1 2 ) ( 3 4 )
L:1/8
Q:1/4=110
M:4/4
K:Eb
V:1 treble 
V:2 treble 
V:3 bass 
V:4 bass 
V:1
 [EB]2 | [EG]2 [DA]2 [EB]2 [Ge]2 | (e4 d2) [Fd]2 | [Ee]2 (B=B) [Ec]2 [FA][EG] | [DF]6 [DF]2 | %5
 [EG]2 [EA]2 [FB]2 [Ge]2 | [Fe]2 [Fd]2 [Ec]2 [Ec]2 | [EB]2 (EF) [EG]2 [DF]2 | E6 |] %9
V:2
 x2 | x8 | A6 x2 | x2 E2 x4 | x8 | x8 | x8 | x2 E2 x4 | E6 |] %9
V:3
 [E,G,]2 | [E,B,]2 [F,B,]2 [G,B,]2 [E,B,]2 | [F,B,]6 [A,B,]2 | [G,B,]2 [E,G,]2 [A,,A,]2 [A,,C]2 | %4
 [B,,B,]6 [B,,B,]2 | [E,B,]2 [E,C]2 [D,B,]2 [E,B,]2 | [B,,B,]2 [=B,,A,]2 [C,G,]2 [A,,A,]2 | %7
 [B,,G,]2 (G,A,) [B,,B,]2 [B,,A,]2 | [E,G,]6 |] %9
V:4
 x2 | x8 | x8 | x8 | x8 | x8 | x8 | x2 C,2 x4 | x6 |] %9

